X: 23
T:Gillian's Apples
T:Gillan's Apples
M:6/8
L:1/8
R:Double Jig
K:G
g3 B2A|GBA GBd|ege edB|dBA A2B|!
dgg gdB|GBd g2a|bag fge|1ed^c def:|2ed^c d2e|!
|:faa faa|faa afd|gbb gbb|gbb bag|!
faa faa|faa aga|bag fge|1ed^c d2e:|2ed^c def|]!
